logos/bitcoin.svg

<?xml version="1.0" encoding="UTF-8" standalone="no"?>
<svg width="256px" height="256px" viewBox="0 0 256 256" version="1.1" xmlns="http://www.w3.org/2000/svg" xmlns:xlink="http://www.w3.org/1999/xlink" preserveAspectRatio="xMidYMid">
    <defs>
        <linearGradient x1="49.9733228%" y1="-0.0235524798%" x2="49.9733228%" y2="99.9898856%" id="linearGradient-1">
            <stop stop-color="#F9AA4B" offset="0%"></stop>
            <stop stop-color="#F7931A" offset="100%"></stop>
        </linearGradient>
    </defs>
	<g>
		<path d="M252.171181,158.953845 C235.068666,227.562366 165.558445,269.267547 97.0483714,252.165422 C28.4382829,235.063298 -13.2678496,165.554665 3.83466519,97.0461553 C20.93718,28.4376335 90.3473861,-13.2675466 158.957475,3.83457763 C227.467548,20.8366894 269.273696,90.345323 252.171181,158.953845 L252.171181,158.953845 L252.171181,158.953845 Z" fill="url(#linearGradient-1)"></path>
		<path d="M188.944877,112.05 C191.444877,95.05 178.544877,85.85 160.744877,79.75 L166.544877,56.65 L152.544877,53.15 L146.944877,75.65 C143.244877,74.75 139.444877,73.85 135.644877,73.05 L141.244877,50.45 L127.244877,46.95 L121.544877,69.95 C118.444877,69.25 115.444877,68.55 112.544877,67.85 L112.544877,67.75 L93.1448775,62.95 L89.4448775,77.95 C89.4448775,77.95 99.8448775,80.35 99.6448775,80.45 C105.344877,81.85 106.344877,85.65 106.144877,88.65 L99.5448775,114.95 C99.9448775,115.05 100.444877,115.15 101.044877,115.45 C100.544877,115.35 100.044877,115.25 99.5448775,115.05 L90.3448775,151.85 C89.6448775,153.55 87.8448775,156.15 83.9448775,155.15 C84.0448775,155.35 73.7448775,152.65 73.7448775,152.65 L66.7448775,168.75 L85.0448775,173.35 C88.4448775,174.25 91.7448775,175.05 95.0448775,175.95 L89.2448775,199.25 L103.244877,202.75 L109.044877,179.65 C112.844877,180.65 116.644877,181.65 120.244877,182.55 L114.544877,205.55 L128.544877,209.05 L134.344877,185.75 C158.344877,190.25 176.344877,188.45 183.844877,166.75 C189.944877,149.35 183.544877,139.25 170.944877,132.65 C180.244877,130.55 187.144877,124.45 188.944877,112.05 L188.944877,112.05 L188.944877,112.05 Z M156.844877,157.05 C152.544877,174.45 123.144877,165.05 113.644877,162.65 L121.344877,131.75 C130.844877,134.15 161.444877,138.85 156.844877,157.05 L156.844877,157.05 Z M161.244877,111.75 C157.244877,127.65 132.844877,119.55 124.944877,117.55 L131.944877,89.55 C139.844877,91.55 165.344877,95.25 161.244877,111.75 L161.244877,111.75 Z" fill="#FFFFFF"></path>
	</g>
</svg>

<svg width="256" height="256" xmlns="http://www.w3.org/2000/svg" preserveAspectRatio="xMidYMid">
	<defs>
		<linearGradient x1="49.973%" y1="-.024%" x2="49.973%" y2="99.99%" id="a">
			<stop stop-color="#F9AA4B" offset="0%"/>
			<stop stop-color="#F7931A" offset="100%"/>
		</linearGradient>
	</defs>
	<path d="M252.171 158.954c-17.102 68.608-86.613 110.314-155.123 93.211-68.61-17.102-110.316-86.61-93.213-155.119C20.937 28.438 90.347-13.268 158.957 3.835c68.51 17.002 110.317 86.51 93.214 155.119Z" fill="url(#a)"/>
	<path d="M188.945 112.05c2.5-17-10.4-26.2-28.2-32.3l5.8-23.1-14-3.5-5.6 22.5c-3.7-.9-7.5-1.8-11.3-2.6l5.6-22.6-14-3.5-5.7 23c-3.1-.7-6.1-1.4-9-2.1v-.1l-19.4-4.8-3.7 15s10.4 2.4 10.2 2.5c5.7 1.4 6.7 5.2 6.5 8.2l-6.6 26.3c.4.1.9.2 1.5.5-.5-.1-1-.2-1.5-.4l-9.2 36.8c-.7 1.7-2.5 4.3-6.4 3.3.1.2-10.2-2.5-10.2-2.5l-7 16.1 18.3 4.6c3.4.9 6.7 1.7 10 2.6l-5.8 23.3 14 3.5 5.8-23.1c3.8 1 7.6 2 11.2 2.9l-5.7 23 14 3.5 5.8-23.3c24 4.5 42 2.7 49.5-19 6.1-17.4-.3-27.5-12.9-34.1 9.3-2.1 16.2-8.2 18-20.6Zm-32.1 45c-4.3 17.4-33.7 8-43.2 5.6l7.7-30.9c9.5 2.4 40.1 7.1 35.5 25.3Zm4.4-45.3c-4 15.9-28.4 7.8-36.3 5.8l7-28c7.9 2 33.4 5.7 29.3 22.2Z" fill="#FFF"/>
</svg>
